config/expand/iconfont/module-menu/module-jicai.svg

<?xml version="1.0" encoding="UTF-8"?>
<svg width="22px" height="21px" viewBox="0 0 22 21" version="1.1" xmlns="http://www.w3.org/2000/svg" xmlns:xlink="http://www.w3.org/1999/xlink">
    <!-- Generator: Sketch 53 (72520) - https://sketchapp.com -->
    <title>jicai</title>
    <desc>Created with Sketch.</desc>
    <defs>
        <linearGradient x1="50%" y1="75.7642302%" x2="50%" y2="-15.1511099%" id="linearGradient-1">
            <stop stop-color="#B7B7B7" offset="0%"></stop>
            <stop stop-color="#FFFFFF" offset="100%"></stop>
        </linearGradient>
    </defs>
    <g id="Page-2" stroke="none" stroke-width="1" fill="none" fill-rule="evenodd">
        <g id="图标" transform="translate(-623.000000, -642.000000)">
            <g id="jicai" transform="translate(623.000000, 642.000000)">
                <polygon id="Path" fill="url(#linearGradient-1)" points="5.13570569 6.90625 20.1154513 6.90625 18.1171875 11.90625 6.1171875 11.90625"></polygon>
                <path d="M20.5794155,4.61356707 C20.0435,3.83307927 19.1178278,3.34527438 18.143436,3.34527438 L5.33018367,3.34527438 L5.13530532,2.41844512 C4.94042696,1.54039633 4.1609135,0.90625 3.23524129,0.90625 L1.0915793,0.90625 C0.555663792,0.90625 0.117187477,1.34527439 0.1171875,1.88185974 C0.117187523,2.41844509 0.555663815,2.85746951 1.0915793,2.85746951 L3.23524129,2.85746951 L3.62499802,4.51600609 L5.86609918,14.5160061 C6.06097753,15.3940549 6.84049099,16.0282012 7.76616321,16.0282012 L17.6562401,16.0282012 C18.1921556,16.0282012 18.6306319,15.5891768 18.6306319,15.0525915 C18.6306319,14.5160061 18.1921556,14.0769817 17.6562401,14.0769817 L7.71744362,14.0769817 L7.52256525,13.101372 L16.7792875,13.101372 C17.9972772,13.101372 19.1178278,12.3208842 19.5563041,11.1989329 L20.9691722,7.39405488 C21.2614898,6.41844511 21.115331,5.39405487 20.5794155,4.61356707 L20.5794155,4.61356707 Z M19.1178278,6.66234756 L17.6562401,10.5160061 C17.5100813,10.90625 17.1690442,11.1501524 16.7305679,11.1501524 L7.08408893,11.1501524 L5.76865999,5.29649391 L18.143436,5.29649391 C18.4844731,5.29649391 18.7767907,5.44283537 18.971669,5.7355183 C19.1665474,6.02820122 19.215267,6.36966463 19.1178278,6.66234756 Z M7.91232198,20.90625 C6.84049099,20.90625 5.96353836,20.0282012 5.96353836,18.9550305 C5.96353836,17.8818598 6.84049099,17.003811 7.91232198,17.003811 C8.98415296,17.003811 9.86110559,17.8818598 9.86110559,18.9550305 C9.86110559,20.0282012 8.98415296,20.90625 7.91232198,20.90625 Z M16.6818483,20.90625 C15.6100173,20.90625 14.7330647,20.0282012 14.7330647,18.9550305 C14.7330647,17.8818598 15.6100173,17.003811 16.6818483,17.003811 C17.7536793,17.003811 18.6306319,17.8818598 18.6306319,18.9550305 C18.6306319,20.0282012 17.7536793,20.90625 16.6818483,20.90625 Z" id="Shape" fill="#333333" fill-rule="nonzero"></path>
            </g>
        </g>
    </g>
</svg>

<svg width="22" height="21" xmlns="http://www.w3.org/2000/svg"><defs><linearGradient x1="50%" y1="75.764%" x2="50%" y2="-15.151%" id="a"><stop stop-color="#B7B7B7" offset="0%"/><stop stop-color="#FFF" offset="100%"/></linearGradient></defs><g><path d="M5.136 6.906h14.98l-1.999 5h-12z"/><path d="M20.58 4.614a2.977 2.977 0 00-2.437-1.269H5.33l-.195-.927a1.935 1.935 0 00-1.9-1.512H1.092a.978.978 0 00-.975.976c0 .536.439.975.975.975h2.143l.39 1.659 2.241 10a1.935 1.935 0 001.9 1.512h9.89a.978.978 0 00.975-.975.978.978 0 00-.975-.976H7.717l-.194-.976h9.256a3.02 3.02 0 002.777-1.902l1.413-3.805c.292-.976.146-2-.39-2.78zm-1.462 2.048l-1.462 3.854a.953.953 0 01-.925.634H7.084L5.77 5.296h12.374c.341 0 .634.147.829.44.195.292.243.634.146.926zM7.912 20.906a1.956 1.956 0 01-1.948-1.951c0-1.073.876-1.951 1.948-1.951s1.95.878 1.95 1.951a1.956 1.956 0 01-1.95 1.951zm8.77 0a1.956 1.956 0 01-1.949-1.951c0-1.073.877-1.951 1.949-1.951s1.949.878 1.949 1.951a1.956 1.956 0 01-1.95 1.951z"/></g></svg>
